svgs/sharp-regular/envelope.svg

<svg xmlns="http://www.w3.org/2000/svg" viewBox="0 0 512 512"><!--! Font Awesome Pro 6.6.0 by @fontawesome - https://fontawesome.com License - https://fontawesome.com/license (Commercial License) Copyright 2024 Fonticons, Inc. --><path d="M48 150.8l208 143 208-143 0-38.8L48 112l0 38.8zM464 209L256 352 48 209l0 191 416 0 0-191zM0 400L0 176l0-64L0 64l48 0 416 0 48 0 0 48 0 64 0 224 0 48-48 0L48 448 0 448l0-48z"/></svg>

<svg xmlns="http://www.w3.org/2000/svg" viewBox="0 0 512 512"><!--! Font Awesome Pro 6.4.2 by @fontawesome - https://fontawesome.com License - https://fontawesome.com/license (Commercial License) Copyright 2023 Fonticons, Inc. --><path d="M48 150.8l208 143 208-143V112H48v38.8zM464 209L256 352 48 209V400H464V209zM0 400V176 112 64H48 464h48v48 64V400v48H464 48 0V400z"/></svg>
